img/log-in-icon.svg

<svg width="18" height="18" fill="none" xmlns="http://www.w3.org/2000/svg"><path fill-rule="evenodd" clip-rule="evenodd" d="M10.2084 1.875c0-.36819.2985-.66667.6666-.66667h3A2.16662 2.16662 0 0 1 16.0417 3.375v10.5c0 .5746-.2283 1.1257-.6346 1.5321a2.1667 2.1667 0 0 1-1.5321.6346h-3c-.3681 0-.6666-.2985-.6666-.6667 0-.3682.2985-.6667.6666-.6667h3c.2211 0 .433-.0878.5893-.244a.83343.83343 0 0 0 .2441-.5893v-10.5a.83329.83329 0 0 0-.2441-.58926.83331.83331 0 0 0-.5893-.24407h-3c-.3681 0-.6666-.29848-.6666-.66667ZM6.65359 4.40359c.26035-.26035.68246-.26035.94281 0l3.7454 3.74544c.1234.12099.1999.28954.1999.47597 0 .18643-.0765.35499-.1999.47598L7.5964 12.8464c-.26035.2604-.68246.2604-.94281 0-.26035-.2603-.26035-.6825 0-.9428l2.61193-2.61193H1.87504c-.36819 0-.66667-.29848-.66667-.66667 0-.36819.29848-.66667.66667-.66667h7.39048L6.65359 5.3464c-.26035-.26035-.26035-.68246 0-.94281Z" fill="#2D3440"/></svg>

<svg width="18" height="18" viewBox="0 0 18 18" fill="none" xmlns="http://www.w3.org/2000/svg">
<path fill-rule="evenodd" clip-rule="evenodd" d="M10.2084 1.875C10.2084 1.50681 10.5069 1.20833 10.875 1.20833H13.875C14.4497 1.20833 15.0008 1.43661 15.4071 1.84293C15.8134 2.24926 16.0417 2.80036 16.0417 3.375V13.875C16.0417 14.4496 15.8134 15.0007 15.4071 15.4071C15.0008 15.8134 14.4497 16.0417 13.875 16.0417H10.875C10.5069 16.0417 10.2084 15.7432 10.2084 15.375C10.2084 15.0068 10.5069 14.7083 10.875 14.7083H13.875C14.0961 14.7083 14.308 14.6205 14.4643 14.4643C14.6206 14.308 14.7084 14.096 14.7084 13.875V3.375C14.7084 3.15399 14.6206 2.94202 14.4643 2.78574C14.308 2.62946 14.0961 2.54167 13.875 2.54167H10.875C10.5069 2.54167 10.2084 2.24319 10.2084 1.875ZM6.65359 4.40359C6.91394 4.14324 7.33605 4.14324 7.5964 4.40359L11.3418 8.14903C11.4652 8.27002 11.5417 8.43857 11.5417 8.625C11.5417 8.81143 11.4652 8.97999 11.3418 9.10098L7.5964 12.8464C7.33605 13.1068 6.91394 13.1068 6.65359 12.8464C6.39324 12.5861 6.39324 12.1639 6.65359 11.9036L9.26552 9.29167H1.87504C1.50685 9.29167 1.20837 8.99319 1.20837 8.625C1.20837 8.25681 1.50685 7.95833 1.87504 7.95833H9.26552L6.65359 5.3464C6.39324 5.08605 6.39324 4.66394 6.65359 4.40359Z" fill="#2D3440"/>
</svg>
